X:1
T:I Know Who Pilots Me
T:I Know Who Pilots Me
T:Howard E. Smith
T:James Rowe, 1905
T:Public Domain Courtesy of the Cyber Hymnal™
T:Public Domain Courtesy of the Cyber Hymnal™
C:Howard E. Smith
Z:Public Domain
Z:Courtesy of the Cyber Hymnal™
%%score ( 1 2 ) ( 3 4 )
L:1/8
Q:1/4=88
M:3/4
K:F
V:1 treble 
V:2 treble 
V:3 bass 
V:4 bass 
V:1
 [CA][B,G] [A,F] | [CA]3 [CA] [B,G][A,F] | [B,E]3 [DB] [CA][B,G] | [DB]3 [DB] [CA][=B,^G] | %4
w: 1.~When an- gry|waves a- bout me|roll, And hide my|path a- cross life’s|
w: 2.~Day af- ter|day, tho’ tossed a-|bout, And oft- en|dan- gerous rocks I|
w: 3.~Tho’ each new|day brings tri- als|sore, Tho’ rough- er|still the o- cean|
w: 4.~My Sav- ior’s|love still guides me|on, My on- ly|chart and com- pass|
 [CA]3 [CA] [B,G][A,F] | [CA]3 [_EA] [EB][Ec] | [DB]3 [DB] [CA][B,G] | [A,F]3 [CA] [CA][B,G] | %8
w: sea, No fear a-|larms my trust- ing|soul, For well I|know who pi- lots|
w: see, There comes to|me no fear nor|doubt, For well I|know who pi- lots|
w: be, I know that|I shall reach the|shore, For well I|know who pi- lots|
w: He; I’ll trust Him|till the jour- ney’s|done, For well I|know who pi- lots|
 [A,F]3 ||[M:4/4]"^Refrain" ccA | (z [Fc])AG F x3 | z [EG]cc G x3 | z EE[EB] A2 G2 | A4- [FA]ccA | %14
w: me.||||||
w: me.|Yes, well I|* know who pi-|* * lots me|* * A- cross *|life’s ev- er trou- bled|
w: me.||||||
w: me.||||||
 z [Fd]cB A x3 | z [GB]BA G x3 | z FF[FA] F2 G2 | F4- [CF] |] %18
w: ||||
w: * sea; The winds|* may rave, and|waves may swell, While Je-|sus pi-|
w: ||||
w: ||||
V:2
 x3 | x6 | x6 | x6 | x6 | x6 | x6 | x6 | x3 ||[M:4/4] x3 | c4- F F F x | G4- E E E x | %12
 (c3 E E) (EE) x | F F F F x4 | d4 ^F F F x | B4 G G G x | c3 (C C) (CC) x | C C D _D x |] %18
V:3
 z3 | (F,,C, F,2) C,2 | (G,,C, E,2) C,2 | (G,,C, E,2) C,2 | (F,,C, F,) z C,2 | (F,,C, F,2) C,2 | %6
w: |~ * * ~|~ * * ~|~ * * ~|~ * * ~|~ * * ~|
 (B,,D, F,2) C,2 | (F,,C, F,2) C,2 | F,,3 ||[M:4/4] z3 | z [F,A,][F,A,][F,A,] [F,A,] z3 | %11
w: ~ * * ~|~ * * ~|~||Yes, well I know|
 z [C,C][E,C][G,C] [C,C] z3 | z [C,G,][C,G,][C,C] [C,C][C,C][C,C][C,C] | %13
w: who pi- lots me|A- cross life’s ev- er trou- bled,|
 [F,C][F,C][A,C]C [F,C] z3 | z [D,A,][^F,A,]A, [D,A,] z3 | z [G,,D][B,,D][D,D] [G,D] z3 | %16
w: ev- er trou- bled sea:|The winds may rave,|and waves may swell,|
 z [C,A,][C,A,][C,C] [C,A,][C,A,][C,B,][C,B,] | (A,A,B,B, [F,A,]) |] %18
w: While Je- sus pi- lots, all is|well, * * * *|
V:4
 x3 | x6 | x6 | x6 | x6 | x6 | x6 | x6 | x3 ||[M:4/4] x3 | x8 | x8 | x8 | x3 C x4 | x3 A, x4 | x8 | %16
 x8 | F,4- x |] %18

